assets/dude/Did–Patsy.svg

<svg width="233" height="105" viewBox="0 0 233 105" fill="none" xmlns="http://www.w3.org/2000/svg">
<path d="M44.4682 0.639893C26.2682 0.639893 0.368164 3.15989 0.368164 15.6199C0.368164 25.4199 2.46816 25.2799 2.46816 37.7399C2.46816 38.4399 3.02816 38.9999 3.72816 38.9999H17.5882C18.2882 38.9999 18.8482 39.5599 18.8482 40.2599V65.4599C18.8482 66.1599 18.2882 66.7199 17.5882 66.7199H3.72816C3.02816 66.7199 2.46816 67.2799 2.46816 67.9799C2.46816 80.4399 0.368164 80.4399 0.368164 90.2399C0.368164 102.7 26.2682 104.94 44.4682 104.94C85.9082 104.94 86.3282 79.0399 86.3282 66.5799V39.2799C86.3282 26.8199 86.7482 0.639893 44.4682 0.639893ZM28.9282 65.4599V40.2599C28.9282 39.5599 29.4882 38.9999 30.1882 38.9999H67.4282C72.3282 38.9999 76.2482 42.9199 76.2482 47.8199V57.8999C76.2482 62.7999 72.3282 66.7199 67.4282 66.7199H30.1882C29.4882 66.7199 28.9282 66.1599 28.9282 65.4599Z" fill="#FF1C31"/>
<path d="M136.47 66.7199H122.61C121.91 66.7199 121.35 66.1599 121.35 65.4599V40.2599C121.35 39.5599 121.91 38.9999 122.61 38.9999H136.47C137.17 38.9999 137.73 38.4399 137.73 37.7399C137.73 25.2799 139.83 25.5599 139.83 15.7599C139.83 5.95989 124.85 2.73989 116.31 2.73989C107.77 2.73989 92.79 5.95989 92.79 15.7599C92.79 25.5599 94.89 25.2799 94.89 37.7399C94.89 38.4399 95.45 38.9999 96.15 38.9999H110.01C110.71 38.9999 111.27 39.5599 111.27 40.2599V65.4599C111.27 66.1599 110.71 66.7199 110.01 66.7199H96.15C95.45 66.7199 94.89 67.2799 94.89 67.9799C94.89 80.4399 92.79 80.1599 92.79 89.9599C92.79 99.7599 107.77 102.98 116.31 102.98C124.85 102.98 139.83 99.7599 139.83 89.9599C139.83 80.1599 137.73 80.4399 137.73 67.9799C137.73 67.2799 137.17 66.7199 136.47 66.7199Z" fill="#FF1C31"/>
<path d="M190.621 0.639893C172.421 0.639893 146.521 3.15989 146.521 15.6199C146.521 25.4199 148.621 25.2799 148.621 37.7399C148.621 38.4399 149.181 38.9999 149.881 38.9999H163.741C164.441 38.9999 165.001 39.5599 165.001 40.2599V65.4599C165.001 66.1599 164.441 66.7199 163.741 66.7199H149.881C149.181 66.7199 148.621 67.2799 148.621 67.9799C148.621 80.4399 146.521 80.4399 146.521 90.2399C146.521 102.7 172.421 104.94 190.621 104.94C232.061 104.94 232.481 79.0399 232.481 66.5799V39.2799C232.481 26.8199 232.901 0.639893 190.621 0.639893ZM175.081 65.4599V40.2599C175.081 39.5599 175.641 38.9999 176.341 38.9999H213.581C218.481 38.9999 222.401 42.9199 222.401 47.8199V57.8999C222.401 62.7999 218.481 66.7199 213.581 66.7199H176.341C175.641 66.7199 175.081 66.1599 175.081 65.4599Z" fill="#FF1C31"/>
</svg>

<svg xmlns="http://www.w3.org/2000/svg" fill="none" viewBox="0 0 233 105"><path fill="#FF1C31" d="M44.468.64c-18.2 0-44.1 2.52-44.1 14.98 0 9.8 2.1 9.66 2.1 22.12 0 .7.56 1.26 1.26 1.26h13.86c.7 0 1.26.56 1.26 1.26v25.2c0 .7-.56 1.26-1.26 1.26H3.728c-.7 0-1.26.56-1.26 1.26 0 12.46-2.1 12.46-2.1 22.26 0 12.46 25.9 14.7 44.1 14.7 41.44 0 41.86-25.9 41.86-38.36v-27.3c0-12.46.42-38.64-41.86-38.64zm-15.54 64.82v-25.2c0-.7.56-1.26 1.26-1.26h37.24c4.9 0 8.82 3.92 8.82 8.82V57.9c0 4.9-3.92 8.82-8.82 8.82h-37.24c-.7 0-1.26-.56-1.26-1.26zM136.47 66.72h-13.86c-.7 0-1.26-.56-1.26-1.26v-25.2c0-.7.56-1.26 1.26-1.26h13.86c.7 0 1.26-.56 1.26-1.26 0-12.46 2.1-12.18 2.1-21.98S124.85 2.74 116.31 2.74 92.79 5.96 92.79 15.76c0 9.8 2.1 9.52 2.1 21.98 0 .7.56 1.26 1.26 1.26h13.86c.7 0 1.26.56 1.26 1.26v25.2c0 .7-.56 1.26-1.26 1.26H96.15c-.7 0-1.26.56-1.26 1.26 0 12.46-2.1 12.18-2.1 21.98s14.98 13.02 23.52 13.02 23.52-3.22 23.52-13.02c0-9.8-2.1-9.52-2.1-21.98 0-.7-.56-1.26-1.26-1.26zM190.621.64c-18.2 0-44.1 2.52-44.1 14.98 0 9.8 2.1 9.66 2.1 22.12 0 .7.56 1.26 1.26 1.26h13.86c.7 0 1.26.56 1.26 1.26v25.2c0 .7-.56 1.26-1.26 1.26h-13.86c-.7 0-1.26.56-1.26 1.26 0 12.46-2.1 12.46-2.1 22.26 0 12.46 25.9 14.7 44.1 14.7 41.44 0 41.86-25.9 41.86-38.36v-27.3c0-12.46.42-38.64-41.86-38.64zm-15.54 64.82v-25.2c0-.7.56-1.26 1.26-1.26h37.24c4.9 0 8.82 3.92 8.82 8.82V57.9c0 4.9-3.92 8.82-8.82 8.82h-37.24c-.7 0-1.26-.56-1.26-1.26z"/></svg>
